X:535
T:Crooked Stovepipe, The
S:Donna Hind's notebook
Z:Nigel Gatherer
M:2/4
L:1/8
K:G
(3DEF | GB B/c/d/B | GB B/c/d/B | GB eB |   dc cB/A/ |
        FA A/B/c/A | FA AB/c/   | dd ef |   g3      :|
a     | b3    a    | g3     f   | ee fg |   a3  b    |
        c'3   a    | f3     e   | dd ef | 1 g^g a^a :|
                                          2 g3      |]
